svg/icon-apple.svg

<?xml version="1.0" encoding="UTF-8" standalone="no"?>
<!-- Created with Inkscape (http://www.inkscape.org/) -->

<svg
   xmlns:dc="http://purl.org/dc/elements/1.1/"
   xmlns:cc="http://creativecommons.org/ns#"
   xmlns:rdf="http://www.w3.org/1999/02/22-rdf-syntax-ns#"
   xmlns:svg="http://www.w3.org/2000/svg"
   xmlns="http://www.w3.org/2000/svg"
   xmlns:sodipodi="http://sodipodi.sourceforge.net/DTD/sodipodi-0.dtd"
   xmlns:inkscape="http://www.inkscape.org/namespaces/inkscape"
   width="64"
   height="64"
   version="1.1"
   viewBox="0 0 16.933 16.933"
   id="svg10"
   sodipodi:docname="icon-apple.svg"
   inkscape:version="0.92.2 2405546, 2018-03-11">
  <defs
     id="defs14" />
  <sodipodi:namedview
     pagecolor="#ffffff"
     bordercolor="#666666"
     borderopacity="1"
     objecttolerance="10"
     gridtolerance="10"
     guidetolerance="10"
     inkscape:pageopacity="0"
     inkscape:pageshadow="2"
     inkscape:window-width="1366"
     inkscape:window-height="703"
     id="namedview12"
     showgrid="false"
     inkscape:zoom="3.6875"
     inkscape:cx="22.101695"
     inkscape:cy="28.20339"
     inkscape:window-x="0"
     inkscape:window-y="28"
     inkscape:window-maximized="1"
     inkscape:current-layer="svg10" />
  <metadata
     id="metadata2">
    <rdf:RDF>
      <cc:Work
         rdf:about="">
        <dc:format>image/svg+xml</dc:format>
        <dc:type
           rdf:resource="http://purl.org/dc/dcmitype/StillImage" />
        <dc:title />
      </cc:Work>
    </rdf:RDF>
  </metadata>
  <path
     style="fill:#1f2932;stroke-width:0.4233216"
     inkscape:connector-curvature="0"
     id="path6"
     d="m 15.299156,13.195975 c -0.256076,0.591591 -0.559191,1.136159 -0.910386,1.636776 -0.478713,0.682517 -0.870675,1.154974 -1.172734,1.417306 -0.468265,0.430649 -0.96997,0.65119 -1.507209,0.663718 -0.385691,0 -0.850804,-0.109758 -1.392235,-0.332363 -0.543208,-0.221597 -1.0424,-0.331355 -1.498842,-0.331355 -0.478712,0 -0.992128,0.109758 -1.5412722,0.331355 C 6.7264862,16.804049 6.2834049,16.920047 5.944658,16.931551 5.4294659,16.95347 4.9159537,16.726706 4.4033694,16.250057 4.0762224,15.964733 3.6670126,15.475573 3.1767961,14.782591 2.650836,14.042571 2.2184266,13.18444 1.8796797,12.206151 1.5168852,11.149463 1.335016,10.126182 1.335016,9.1354773 c 0,-1.1347988 0.2452123,-2.113568 0.7363568,-2.9337155 C 2.457367,5.5429558 2.9708952,5.0232677 3.6135894,4.6417535 4.2562997,4.2602713 4.9507371,4.0658582 5.6985178,4.0534104 c 0.4092098,0 0.9458256,0.1265581 1.6126155,0.3753543 C 7.976099,4.6783449 8.403069,4.804935 8.590266,4.804935 c 0.139955,0 0.614279,-0.1479978 1.418362,-0.4430813 0.760405,-0.2736279 1.402171,-0.3869381 1.927971,-0.3422988 1.424635,0.1148782 2.495002,0.6765657 3.206671,1.6882944 -1.274124,0.7720043 -1.904451,1.8532519 -1.891811,3.2404308 0.01152,1.0804479 0.40345,1.9794899 1.17379,2.6933989 0.349099,0.331339 0.738965,0.587399 1.172735,0.769285 -0.09406,0.272811 -0.193374,0.534103 -0.29894,0.784963 z M 12.031846,0.33873077 c 0,0.84685113 -0.309388,1.63757513 -0.926066,2.36940403 C 10.361583,3.5781696 9.461485,4.0809139 8.485339,4.0016032 8.472909,3.9000047 8.465689,3.7930623 8.465689,3.680712 8.465689,2.8677324 8.819604,1.9976976 9.44809,1.2863484 9.761862,0.92614577 10.160928,0.62667837 10.644872,0.38776997 11.127761,0.15242957 11.584522,0.02228757 12.014116,-1.289716e-7 12.026596,0.11327817 12.031876,0.22642847 12.031876,0.33874677 Z" />
</svg>

<?xml version="1.0" encoding="UTF-8"?>
<!-- Created with Inkscape (http://www.inkscape.org/) -->
<svg width="64" height="64" version="1.1" viewBox="0 0 16.933 16.933" xmlns="http://www.w3.org/2000/svg" xmlns:cc="http://creativecommons.org/ns#" xmlns:dc="http://purl.org/dc/elements/1.1/" xmlns:rdf="http://www.w3.org/1999/02/22-rdf-syntax-ns#">
 <metadata>
  <rdf:RDF>
   <cc:Work rdf:about="">
    <dc:format>image/svg+xml</dc:format>
    <dc:type rdf:resource="http://purl.org/dc/dcmitype/StillImage"/>
    <dc:title/>
   </cc:Work>
  </rdf:RDF>
 </metadata>
 <path d="m15.299 13.196c-0.25608 0.59159-0.55919 1.1362-0.91039 1.6368-0.47871 0.68252-0.87068 1.155-1.1727 1.4173-0.46826 0.43065-0.96997 0.65119-1.5072 0.66372-0.38569 0-0.8508-0.10976-1.3922-0.33236-0.54321-0.2216-1.0424-0.33136-1.4988-0.33136-0.47871 0-0.99213 0.10976-1.5413 0.33136-0.54999 0.22264-0.99307 0.33864-1.3318 0.35014-0.51519 0.021919-1.0287-0.20484-1.5413-0.68149-0.32715-0.28532-0.73636-0.77448-1.2266-1.4675-0.52596-0.74002-0.95837-1.5982-1.2971-2.5764-0.36279-1.0567-0.54466-2.08-0.54466-3.0707 0-1.1348 0.24521-2.1136 0.73636-2.9337 0.38599-0.65881 0.89952-1.1785 1.5422-1.56 0.64271-0.38148 1.3371-0.5759 2.0849-0.58834 0.40921 0 0.94583 0.12656 1.6126 0.37535 0.66497 0.24958 1.0919 0.37617 1.2791 0.37617 0.13996 0 0.61428-0.148 1.4184-0.44308 0.7604-0.27363 1.4022-0.38694 1.928-0.3423 1.4246 0.11488 2.495 0.67657 3.2067 1.6883-1.2741 0.772-1.9045 1.8533-1.8918 3.2404 0.01152 1.0804 0.40345 1.9795 1.1738 2.6934 0.3491 0.33134 0.73896 0.5874 1.1727 0.76928-0.09406 0.27281-0.19337 0.5341-0.29894 0.78496zm-3.2673-12.857c0 0.84685-0.30939 1.6376-0.92607 2.3694-0.7442 0.87003-1.6443 1.3728-2.6204 1.2935-0.01243-0.1016-0.01965-0.20854-0.01965-0.32089 0-0.81298 0.35392-1.683 0.9824-2.3944 0.31377-0.3602 0.71284-0.65967 1.1968-0.89858 0.48289-0.23534 0.93965-0.36548 1.3692-0.38777 0.01248 0.11328 0.01776 0.22643 0.01776 0.33875z" fill="#1f2932" stroke-width=".42332"/>
</svg>
